X: 36894
T: Shoemaker's Daughter, The
R: reel
M: 4/4
K: Gmajor
DF|:G2 DG BcdB|G=FDE FDCD|G2 DG Bcde|=fdBd c2 Bc|
dg (3gfg dc (3cBc|Bcde =fdcd|g^fdc BcdB|FGAF G2:|
ef|:g2 dg bgdg|gfdg fdcd|g2 dg Bgdg|f2 (3cBA BGGf|
g2 dc BGGE|^FGAB c2 Bc|dg (3gfg de=fd|cA^FA G2:|

